X: 818
T: Hillside cottage
C: anon.
O: Ireland
B: Francis O'Neill: "The Dance Music of Ireland" (1907) no. 818
R: Hornpipe
Z: Transcribed by Frank Nordberg - http://www.musicaviva.com
F: http://www.musicaviva.com/abc/tunes/ireland/oneill-1001/oneill-1001-081
8.abc
M: 2/4
L: 1/8
K: G
D|G>B A/G/E/D/|G/B/d/g/ e>f|({a}g/)f/g/e/ d/B/A/c/|B/G/A/F/ G/F/E/D/|G>B
A/G/E/D/|G/B/d/g/ e>f|({a}g/)f/g/e/ d/B/g/e/|d/B/A/B/ G:|
|:z|gd/g/ e/d/g/d/|e/a/a/b/ a/g/e/f/|gd/g/ e/d/g/d/|e/g/f/a/ g(g/a/)|b/a/
g/b/ a/g/(f/a/)|g/a/g/e/ de/f/|({a}g/)f/g/e/ d/B/g/e/|d/B/A/B/ G:|
W:
W:
W: From Musica Viva - http://www.musicaviva.com
W: the Internet center for free sheet music downloads.


